X:31
T:Lyle de Montreal
C:Laurence Beaudry and Robin Beech
Z:robin.beech@mcgill.ca
R:waltz
M:3/4
L:1/4
K:Emin
EGB | eBg | fef | B3 | cBA | F3 | GBG | EB,2 |
EGB | egb | agf | B3 | Ace | B^df |1 ABg | ef2 :|2 ABg | fe2 |:
GFE | e2B | A/B/cA | F3 |cAF | FAc |egf | B3 |
GFE | c2A | F/G/AF | B3 |1 EFG | ABc | B^de | f3 :|2
EFG | Ac2- | cBB, | E3 |]
